assets/svg/networks/wallet_solana.svg

<svg width="36" height="36" viewBox="0 0 36 36" fill="none" xmlns="http://www.w3.org/2000/svg">
<g clip-path="url(#clip0_20480_35468)">
<rect width="36" height="36" rx="10" fill="#252A34"/>
<g clip-path="url(#clip1_20480_35468)">
<path d="M11.2497 22.2123C11.3704 22.0892 11.5363 22.0173 11.7124 22.0173H27.6741C27.9658 22.0173 28.1116 22.3766 27.9055 22.5871L24.7523 25.8055C24.6316 25.9287 24.4657 26.0006 24.2897 26.0006H8.32789C8.03622 26.0006 7.89038 25.6413 8.09656 25.4308L11.2497 22.2123Z" fill="url(#paint0_linear_20480_35468)"/>
<path d="M11.2497 10.1951C11.3754 10.0719 11.5414 10 11.7124 10H27.6741C27.9658 10 28.1116 10.3593 27.9055 10.5698L24.7523 13.7883C24.6316 13.9115 24.4657 13.9833 24.2897 13.9833H8.32789C8.03622 13.9833 7.89038 13.624 8.09656 13.4135L11.2497 10.1951Z" fill="url(#paint1_linear_20480_35468)"/>
<path d="M24.7523 16.1648C24.6316 16.0416 24.4657 15.9697 24.2897 15.9697H8.32789C8.03622 15.9697 7.89038 16.3291 8.09656 16.5395L11.2497 19.758C11.3704 19.8812 11.5363 19.9531 11.7124 19.9531H27.6741C27.9658 19.9531 28.1116 19.5937 27.9055 19.3833L24.7523 16.1648Z" fill="url(#paint2_linear_20480_35468)"/>
</g>
</g>
<defs>
<linearGradient id="paint0_linear_20480_35468" x1="26.1493" y1="8.07797" x2="14.7422" y2="29.4836" gradientUnits="userSpaceOnUse">
<stop stop-color="#00FFA3"/>
<stop offset="1" stop-color="#DC1FFF"/>
</linearGradient>
<linearGradient id="paint1_linear_20480_35468" x1="21.319" y1="5.5033" x2="9.91191" y2="26.9089" gradientUnits="userSpaceOnUse">
<stop stop-color="#00FFA3"/>
<stop offset="1" stop-color="#DC1FFF"/>
</linearGradient>
<linearGradient id="paint2_linear_20480_35468" x1="23.7188" y1="6.78204" x2="12.3117" y2="28.1877" gradientUnits="userSpaceOnUse">
<stop stop-color="#00FFA3"/>
<stop offset="1" stop-color="#DC1FFF"/>
</linearGradient>
<clipPath id="clip0_20480_35468">
<rect width="36" height="36" fill="white"/>
</clipPath>
<clipPath id="clip1_20480_35468">
<rect width="20" height="16" fill="white" transform="translate(8 10)"/>
</clipPath>
</defs>
</svg>

<svg xmlns="http://www.w3.org/2000/svg" width="36" height="36" fill="none"><g clip-path="url(#a)"><rect width="36" height="36" fill="#252A34" rx="10"/><g clip-path="url(#b)"><path fill="url(#c)" d="M11.25 22.212a.65.65 0 0 1 .462-.195h15.962c.292 0 .438.36.232.57l-3.154 3.218a.65.65 0 0 1-.462.196H8.328c-.292 0-.438-.36-.231-.57z"/><path fill="url(#d)" d="M11.25 10.195a.67.67 0 0 1 .462-.195h15.962c.292 0 .438.36.232.57l-3.154 3.218a.65.65 0 0 1-.462.195H8.328c-.292 0-.438-.359-.231-.57z"/><path fill="url(#e)" d="M24.752 16.165a.65.65 0 0 0-.462-.195H8.328c-.292 0-.438.36-.231.57l3.153 3.218c.12.123.286.195.462.195h15.962c.292 0 .438-.36.232-.57z"/></g></g><defs><linearGradient id="c" x1="26.149" x2="14.742" y1="8.078" y2="29.484" gradientUnits="userSpaceOnUse"><stop stop-color="#00FFA3"/><stop offset="1" stop-color="#DC1FFF"/></linearGradient><linearGradient id="d" x1="21.319" x2="9.912" y1="5.503" y2="26.909" gradientUnits="userSpaceOnUse"><stop stop-color="#00FFA3"/><stop offset="1" stop-color="#DC1FFF"/></linearGradient><linearGradient id="e" x1="23.719" x2="12.312" y1="6.782" y2="28.188" gradientUnits="userSpaceOnUse"><stop stop-color="#00FFA3"/><stop offset="1" stop-color="#DC1FFF"/></linearGradient><clipPath id="a"><path fill="#fff" d="M0 0h36v36H0z"/></clipPath><clipPath id="b"><path fill="#fff" d="M8 10h20v16H8z"/></clipPath></defs></svg>
